svgs/samsung_phone.svg

<svg width="24" height="24" viewBox="0 0 24 24" fill="none" xmlns="http://www.w3.org/2000/svg">
<path d="M13 2C9.13401 2 6 5.13401 6 9V15C6 18.866 9.13401 22 13 22H14C15.1046 22 16 21.1046 16 20V18C16 16.8954 15.1046 16 14 16H12C10.8954 16 10 15.1046 10 14V10C10 8.89543 10.8954 8 12 8H14C15.1046 8 16 7.10457 16 6V4C16 2.89543 15.1046 2 14 2H13Z" fill="#FFF1C0"/>
</svg>

<svg xmlns="http://www.w3.org/2000/svg" width="24" height="24" fill="none" viewBox="0 0 24 24"><path fill="#FFF1C0" d="M13 2a7 7 0 0 0-7 7v6a7 7 0 0 0 7 7h1a2 2 0 0 0 2-2v-2a2 2 0 0 0-2-2h-2a2 2 0 0 1-2-2v-4a2 2 0 0 1 2-2h2a2 2 0 0 0 2-2V4a2 2 0 0 0-2-2z"/></svg>
